X:1
T:Title
%%score { ( 1 3 ) | ( 2 4 ) }
L:1/8
M:4/4
K:D
V:1 treble nm="Grand Piano"
V:3 treble 
V:2 bass 
V:4 bass 
V:1
 z4 z2[Q:1/4=90] D2 | F>F F>F [EF]2 [EF]2 | [DF]2 [DF]2 z2 F2 | G>G G>G [GB]2 [Gd]2 | %4
[M:3/4] d2 c2 z2 |[M:1/4] A2 |[M:4/4] d3 d c2 ^A2 | c2 B2 z2 F2 | A2 GB, C2- [CE]2 | [F,D]6 z2 | %10
 [G,B,D]8 |[M:3/4] [F,A,D]6 |] %12
V:2
 z4 z2 [D,F,]2 | [D,A,D]>[D,A,D] [D,A,D]>[D,A,D] [C,^A,]2 [C,A,]2 | [B,,B,]2 [B,,B,]2 z2 [B,D]2 | %3
 [E,B,D]>[E,B,D] [E,B,D]>[E,B,D] [E,D]2 [E,B,]2 |[M:3/4] [A,E]2 [A,E]2 z2 |[M:1/4] [G,A,C]2 | %6
[M:4/4] [F,A,D]3 [F,A,D] [F,^A,E]2 [F,CE]2 | [G,^A,E]2 [G,B,D]2 z2 [^D,=A,=C]2 | %8
 [E,G,B,]2 [E,G,B,][E,G,] z2 G,2 | D,6 z2 | G,,8 |[M:3/4] D,6 |] %12
V:3
 x8 | x8 | x8 | x8 |[M:3/4] x6 |[M:1/4] x2 |[M:4/4] x8 | x8 | z4 [A,F]2 z2 | x8 | x8 |[M:3/4] x6 |] %12
V:4
 x8 | x8 | x8 | x8 |[M:3/4] x6 |[M:1/4] x2 |[M:4/4] x8 | x8 | z4 A,,4 | x8 | x8 |[M:3/4] x6 |] %12

